X: 5
T: The Drunken Landlady
R: reel
M: 4/4
L: 1/8
K: Ador
(3Bcd |: eA~A2 egfd|eA~A2 edBc|dedB ~G3A|Bddg ed (3Bcd|eA~A2 egfd|eA~A2 edBc|d2ef gbaf|gedB A4:|(3Bcd|:eaag a2ga|bbgb abge|dedB ~G3A|Bddg edBd|eaag a2ga|bbgb abge|d2ef gbaf|gedB A4:|


Tune 363	Setting 22872

